third_party/noto/noto_2/emoji_u1f4cb.svg

<svg enable-background="new 0 0 128 128" viewBox="0 0 128 128" xmlns="http://www.w3.org/2000/svg"><linearGradient id="c" x1="64.001" x2="64.001" y1="8.4902" y2="124.04" gradientUnits="userSpaceOnUse"><stop stop-color="#D1A773" offset=".0065487"/><stop stop-color="#916843" offset=".9989"/></linearGradient><path d="m108.34 124.04h-88.68c-2.21 0-4-1.79-4-4v-107.55c0-2.21 1.79-4 4-4h88.67c2.21 0 4 1.79 4 4v107.55c0.01 2.21-1.78 4-3.99 4z" fill="url(#c)"/><linearGradient id="b" x1="64.001" x2="64.001" y1="19.166" y2="115.59" gradientUnits="userSpaceOnUse"><stop stop-color="#fff" offset="0"/><stop stop-color="#C8C9CA" offset="1"/></linearGradient><path d="m98.79 114.97h-69.58c-1.34 0-2.43-1.11-2.43-2.48v-91.16c0-1.37 1.09-2.48 2.43-2.48h69.57c1.34 0 2.44 1.11 2.44 2.48v91.16c0 1.37-1.09 2.48-2.43 2.48z" fill="url(#b)"/><linearGradient id="a" x1="64.001" x2="64.001" y1="4.9356" y2="30.477" gradientUnits="userSpaceOnUse"><stop stop-color="#fff" offset="0"/><stop stop-color="#C8C9CA" offset=".8627"/><stop stop-color="#757575" offset="1"/></linearGradient><path d="m74.74 14.67c-0.01-5.91-4.82-10.71-10.74-10.71s-10.72 4.79-10.74 10.71h-17.41v16.07h56.3v-16.07h-17.41zm-10.74 3.65c-2.38 0-4.31-1.93-4.31-4.31s1.93-4.31 4.31-4.31 4.31 1.93 4.31 4.31-1.93 4.31-4.31 4.31z" fill="url(#a)"/><g opacity=".2"><path d="m64 6.96c2.49 0 4.85 1.22 6.31 3.27 0.56 0.79 1.47 1.26 2.44 1.26h35.19c0.77 0 1.39 0.63 1.39 1.39v106.76c0 0.77-0.63 1.39-1.39 1.39h-87.88c-0.77 0-1.39-0.63-1.39-1.39v-106.76c0-0.77 0.63-1.39 1.39-1.39h35.19c0.97 0 1.88-0.47 2.44-1.26 1.46-2.05 3.82-3.27 6.31-3.27m0-3c-3.61 0-6.8 1.79-8.75 4.53h-35.19c-2.43 0-4.39 1.97-4.39 4.39v106.76c0 2.43 1.97 4.39 4.39 4.39h87.88c2.43 0 4.39-1.97 4.39-4.39v-106.76c0-2.43-1.97-4.39-4.39-4.39h-35.19c-1.94-2.74-5.13-4.53-8.75-4.53z" fill="#424242"/></g><g fill="#757575"><path d="m91.25 48.99h-54.5c-1.22 0-2.22-0.99-2.22-2.22 0-1.22 0.99-2.22 2.22-2.22h54.51c1.22 0 2.22 0.99 2.22 2.22-0.01 1.23-1 2.22-2.23 2.22z"/><path d="m91.25 61.16h-54.5c-1.22 0-2.22-0.99-2.22-2.22s0.99-2.22 2.22-2.22h54.51c1.22 0 2.22 0.99 2.22 2.22s-1 2.22-2.23 2.22z"/><path d="m91.25 73.33h-54.5c-1.22 0-2.22-0.99-2.22-2.22s0.99-2.22 2.22-2.22h54.51c1.22 0 2.22 0.99 2.22 2.22s-1 2.22-2.23 2.22z"/><path d="m91.25 85.5h-54.5c-1.22 0-2.22-0.99-2.22-2.22 0-1.22 0.99-2.22 2.22-2.22h54.51c1.22 0 2.22 0.99 2.22 2.22-0.01 1.23-1 2.22-2.23 2.22z"/><path d="m60.06 97.67h-23.31c-1.22 0-2.22-0.99-2.22-2.22s0.99-2.22 2.22-2.22h23.31c1.22 0 2.22 0.99 2.22 2.22s-1 2.22-2.22 2.22z"/></g></svg>

<svg width="128" height="128" style="enable-background:new 0 0 128 128;" xmlns="http://www.w3.org/2000/svg" xmlns:xlink="http://www.w3.org/1999/xlink">
  <g id="图层_1">
    <linearGradient id="SVGID_1_" gradientUnits="userSpaceOnUse" x1="64.0007" x2="64.0007" y1="8.4902" y2="124.0367">
      <stop offset="6.548713e-03" style="stop-color:#D1A773"/>
      <stop offset="0.9989" style="stop-color:#916843"/>
    </linearGradient>
    <path d="M108.34,124.04H19.66c-2.21,0-4-1.79-4-4V12.49c0-2.21,1.79-4,4-4h88.67c2.21,0,4,1.79,4,4 v107.55C112.34,122.25,110.55,124.04,108.34,124.04z" style="fill:url(#SVGID_1_);"/>
    <g>
      <linearGradient id="SVGID_3_" gradientUnits="userSpaceOnUse" x1="64.0007" x2="64.0007" y1="19.1663" y2="115.5889">
        <stop offset="0" style="stop-color:#FFFFFF"/>
        <stop offset="1" style="stop-color:#C8C9CA"/>
      </linearGradient>
      <path d="M98.79,114.97H29.21c-1.34,0-2.43-1.11-2.43-2.48V21.33c0-1.37,1.09-2.48,2.43-2.48h69.57 c1.34,0,2.44,1.11,2.44,2.48v91.16C101.22,113.86,100.13,114.97,98.79,114.97z" style="fill:url(#SVGID_3_);"/>
    </g>
    <linearGradient id="SVGID_4_" gradientUnits="userSpaceOnUse" x1="64.0007" x2="64.0007" y1="4.9356" y2="30.4769">
      <stop offset="0" style="stop-color:#FFFFFF"/>
      <stop offset="0.8627" style="stop-color:#C8C9CA"/>
      <stop offset="1" style="stop-color:#757575"/>
    </linearGradient>
    <path d="M74.74,14.67C74.73,8.76,69.92,3.96,64,3.96c-5.92,0-10.72,4.79-10.74,10.71H35.85v16.07 h56.3V14.67H74.74z M64,18.32c-2.38,0-4.31-1.93-4.31-4.31c0-2.38,1.93-4.31,4.31-4.31c2.38,0,4.31,1.93,4.31,4.31 C68.31,16.39,66.38,18.32,64,18.32z" style="fill:url(#SVGID_4_);"/>
    <g style="opacity:0.2;">
      <path d="M64,6.96c2.49,0,4.85,1.22,6.31,3.27c0.56,0.79,1.47,1.26,2.44,1.26h35.19 c0.77,0,1.39,0.63,1.39,1.39v106.76c0,0.77-0.63,1.39-1.39,1.39H20.06c-0.77,0-1.39-0.63-1.39-1.39V12.88 c0-0.77,0.63-1.39,1.39-1.39h35.19c0.97,0,1.88-0.47,2.44-1.26C59.15,8.18,61.51,6.96,64,6.96 M64,3.96 c-3.61,0-6.8,1.79-8.75,4.53H20.06c-2.43,0-4.39,1.97-4.39,4.39v106.76c0,2.43,1.97,4.39,4.39,4.39h87.88 c2.43,0,4.39-1.97,4.39-4.39V12.88c0-2.43-1.97-4.39-4.39-4.39H72.75C70.81,5.75,67.62,3.96,64,3.96L64,3.96z" style="fill:#424242;"/>
    </g>
    <g>
      <path d="M91.25,48.99H36.75c-1.22,0-2.22-0.99-2.22-2.22c0-1.22,0.99-2.22,2.22-2.22h54.51 c1.22,0,2.22,0.99,2.22,2.22C93.47,48,92.48,48.99,91.25,48.99z" style="fill:#757575;"/>
      <path d="M91.25,61.16H36.75c-1.22,0-2.22-0.99-2.22-2.22s0.99-2.22,2.22-2.22h54.51 c1.22,0,2.22,0.99,2.22,2.22S92.48,61.16,91.25,61.16z" style="fill:#757575;"/>
      <path d="M91.25,73.33H36.75c-1.22,0-2.22-0.99-2.22-2.22s0.99-2.22,2.22-2.22h54.51 c1.22,0,2.22,0.99,2.22,2.22S92.48,73.33,91.25,73.33z" style="fill:#757575;"/>
      <path d="M91.25,85.5H36.75c-1.22,0-2.22-0.99-2.22-2.22c0-1.22,0.99-2.22,2.22-2.22h54.51 c1.22,0,2.22,0.99,2.22,2.22C93.47,84.51,92.48,85.5,91.25,85.5z" style="fill:#757575;"/>
      <path d="M60.06,97.67H36.75c-1.22,0-2.22-0.99-2.22-2.22s0.99-2.22,2.22-2.22h23.31 c1.22,0,2.22,0.99,2.22,2.22S61.28,97.67,60.06,97.67z" style="fill:#757575;"/>
    </g>
  </g>
  <g id="Layer_2" style="display:none;">
    <g style="display:inline;">
      <g style="opacity:0.6;">
        <circle cx="64" cy="64" r="28" style="opacity:0.61;fill:none;stroke:#000000;stroke-width:0.2625;stroke-miterlimit:10;"/>
        <line style="opacity:0.61;fill:none;stroke:#000000;stroke-width:0.25;stroke-miterlimit:10;" x1="84" x2="84" y1="0" y2="128"/>
        <line style="opacity:0.61;fill:none;stroke:#000000;stroke-width:0.25;stroke-miterlimit:10;" x1="44" x2="44" y1="0" y2="128"/>
        <line style="opacity:0.61;fill:none;stroke:#000000;stroke-width:0.25;stroke-miterlimit:10;" x1="64" x2="64" y1="0" y2="128"/>
        <line style="opacity:0.61;fill:none;stroke:#000000;stroke-width:0.25;stroke-miterlimit:10;" x1="128" x2="0" y1="64" y2="64"/>
        <line style="opacity:0.61;fill:none;stroke:#000000;stroke-width:0.25;stroke-miterlimit:10;" x1="128" x2="0" y1="44" y2="44"/>
        <line style="opacity:0.61;fill:none;stroke:#000000;stroke-width:0.25;stroke-miterlimit:10;" x1="128" x2="0" y1="83.75" y2="83.75"/>
        <line style="opacity:0.61;fill:none;stroke:#000000;stroke-width:0.25;stroke-miterlimit:10;" x1="128" x2="0" y1="128" y2="0"/>
        <line style="opacity:0.61;fill:none;stroke:#000000;stroke-width:0.25;stroke-miterlimit:10;" x1="0" x2="128" y1="128" y2="0"/>
        <g style="opacity:0.61;">
          <path d="M64,4.26c32.94,0,59.74,26.8,59.74,59.74S96.94,123.74,64,123.74S4.26,96.94,4.26,64S31.06,4.26,64,4.26 M64,4 C30.86,4,4,30.86,4,64s26.86,60,60,60s60-26.86,60-60S97.14,4,64,4L64,4z"/>
        </g>
        <path d="M107.97,115.97H20.03 c-4.42,0-8.03-3.61-8.03-8.03V20.03c0-4.42,3.61-8.03,8.03-8.03h87.94c4.42,0,8.03,3.61,8.03,8.03v87.91 C116,112.36,112.39,115.97,107.97,115.97z" style="opacity:0.61;fill:none;stroke:#000000;stroke-width:0.2578;stroke-miterlimit:10;"/>
        <path d="M100,124H28c-4.4,0-8-3.6-8-8 V12c0-4.4,3.6-8,8-8h72c4.4,0,8,3.6,8,8v104C108,120.4,104.4,124,100,124z" style="opacity:0.61;fill:none;stroke:#000000;stroke-width:0.2628;stroke-miterlimit:10;"/>
        <path d="M113.77,108H14.23 C8.6,108,4,103.4,4,97.77V30.28c0-5.63,4.6-10.23,10.23-10.23h99.54c5.63,0,10.23,4.6,10.23,10.23v67.48 C124,103.4,119.4,108,113.77,108z" style="opacity:0.61;fill:none;stroke:#000000;stroke-width:0.2627;stroke-miterlimit:10;"/>
      </g>
      <g>
        <g style="opacity:0.2;">
          <defs>
            <rect id="SVGID_2_" height="128" style="opacity:0.2;" width="128" x="0" y="0"/>
          </defs>
          <clipPath id="SVGID_5_">
            <use style="overflow:visible;" xlink:href="#SVGID_2_"/>
          </clipPath>
          <g style="clip-path:url(#SVGID_5_);">
            <g>
              <line style="fill:none;stroke:#000000;stroke-width:0.25;stroke-miterlimit:10;" x1="-28" x2="-28" y1="160" y2="-32"/>
              <line style="fill:none;stroke:#000000;stroke-width:0.25;stroke-miterlimit:10;" x1="-24" x2="-24" y1="160" y2="-32"/>
              <line style="fill:none;stroke:#000000;stroke-width:0.25;stroke-miterlimit:10;" x1="-20" x2="-20" y1="160" y2="-32"/>
              <line style="fill:none;stroke:#000000;stroke-width:0.25;stroke-miterlimit:10;" x1="-16" x2="-16" y1="160" y2="-32"/>
              <line style="fill:none;stroke:#000000;stroke-width:0.25;stroke-miterlimit:10;" x1="-12" x2="-12" y1="160" y2="-32"/>
              <line style="fill:none;stroke:#000000;stroke-width:0.25;stroke-miterlimit:10;" x1="-8" x2="-8" y1="160" y2="-32"/>
              <line style="fill:none;stroke:#000000;stroke-width:0.25;stroke-miterlimit:10;" x1="-4" x2="-4" y1="160" y2="-32"/>
              <line style="fill:none;stroke:#000000;stroke-width:0.25;stroke-miterlimit:10;" x1="0" x2="0" y1="160" y2="-32"/>
              <line style="fill:none;stroke:#000000;stroke-width:0.25;stroke-miterlimit:10;" x1="4" x2="4" y1="160" y2="-32"/>
              <line style="fill:none;stroke:#000000;stroke-width:0.25;stroke-miterlimit:10;" x1="8" x2="8" y1="160" y2="-32"/>
              <line style="fill:none;stroke:#000000;stroke-width:0.25;stroke-miterlimit:10;" x1="12" x2="12" y1="160" y2="-32"/>
              <line style="fill:none;stroke:#000000;stroke-width:0.25;stroke-miterlimit:10;" x1="16" x2="16" y1="160" y2="-32"/>
              <line style="fill:none;stroke:#000000;stroke-width:0.25;stroke-miterlimit:10;" x1="20" x2="20" y1="160" y2="-32"/>
              <line style="fill:none;stroke:#000000;stroke-width:0.25;stroke-miterlimit:10;" x1="24" x2="24" y1="160" y2="-32"/>
              <line style="fill:none;stroke:#000000;stroke-width:0.25;stroke-miterlimit:10;" x1="28" x2="28" y1="160" y2="-32"/>
              <line style="fill:none;stroke:#000000;stroke-width:0.25;stroke-miterlimit:10;" x1="32" x2="32" y1="160" y2="-32"/>
              <line style="fill:none;stroke:#000000;stroke-width:0.25;stroke-miterlimit:10;" x1="36" x2="36" y1="160" y2="-32"/>
              <line style="fill:none;stroke:#000000;stroke-width:0.25;stroke-miterlimit:10;" x1="40" x2="40" y1="160" y2="-32"/>
              <line style="fill:none;stroke:#000000;stroke-width:0.25;stroke-miterlimit:10;" x1="44" x2="44" y1="160" y2="-32"/>
              <line style="fill:none;stroke:#000000;stroke-width:0.25;stroke-miterlimit:10;" x1="48" x2="48" y1="160" y2="-32"/>
              <line style="fill:none;stroke:#000000;stroke-width:0.25;stroke-miterlimit:10;" x1="52" x2="52" y1="160" y2="-32"/>
              <line style="fill:none;stroke:#000000;stroke-width:0.25;stroke-miterlimit:10;" x1="56" x2="56" y1="160" y2="-32"/>
              <line style="fill:none;stroke:#000000;stroke-width:0.25;stroke-miterlimit:10;" x1="60" x2="60" y1="160" y2="-32"/>
              <line style="fill:none;stroke:#000000;stroke-width:0.25;stroke-miterlimit:10;" x1="64" x2="64" y1="160" y2="-32"/>
              <line style="fill:none;stroke:#000000;stroke-width:0.25;stroke-miterlimit:10;" x1="68" x2="68" y1="160" y2="-32"/>
              <line style="fill:none;stroke:#000000;stroke-width:0.25;stroke-miterlimit:10;" x1="72" x2="72" y1="160" y2="-32"/>
              <line style="fill:none;stroke:#000000;stroke-width:0.25;stroke-miterlimit:10;" x1="76" x2="76" y1="160" y2="-32"/>
              <line style="fill:none;stroke:#000000;stroke-width:0.25;stroke-miterlimit:10;" x1="80" x2="80" y1="160" y2="-32"/>
              <line style="fill:none;stroke:#000000;stroke-width:0.25;stroke-miterlimit:10;" x1="84" x2="84" y1="160" y2="-32"/>
              <line style="fill:none;stroke:#000000;stroke-width:0.25;stroke-miterlimit:10;" x1="88" x2="88" y1="160" y2="-32"/>
              <line style="fill:none;stroke:#000000;stroke-width:0.25;stroke-miterlimit:10;" x1="92" x2="92" y1="160" y2="-32"/>
              <line style="fill:none;stroke:#000000;stroke-width:0.25;stroke-miterlimit:10;" x1="96" x2="96" y1="160" y2="-32"/>
              <line style="fill:none;stroke:#000000;stroke-width:0.25;stroke-miterlimit:10;" x1="100" x2="100" y1="160" y2="-32"/>
              <line style="fill:none;stroke:#000000;stroke-width:0.25;stroke-miterlimit:10;" x1="104" x2="104" y1="160" y2="-32"/>
              <line style="fill:none;stroke:#000000;stroke-width:0.25;stroke-miterlimit:10;" x1="108" x2="108" y1="160" y2="-32"/>
              <line style="fill:none;stroke:#000000;stroke-width:0.25;stroke-miterlimit:10;" x1="112" x2="112" y1="160" y2="-32"/>
              <line style="fill:none;stroke:#000000;stroke-width:0.25;stroke-miterlimit:10;" x1="116" x2="116" y1="160" y2="-32"/>
              <line style="fill:none;stroke:#000000;stroke-width:0.25;stroke-miterlimit:10;" x1="120" x2="120" y1="160" y2="-32"/>
              <line style="fill:none;stroke:#000000;stroke-width:0.25;stroke-miterlimit:10;" x1="124" x2="124" y1="160" y2="-32"/>
              <line style="fill:none;stroke:#000000;stroke-width:0.25;stroke-miterlimit:10;" x1="128" x2="128" y1="160" y2="-32"/>
              <line style="fill:none;stroke:#000000;stroke-width:0.25;stroke-miterlimit:10;" x1="132" x2="132" y1="160" y2="-32"/>
              <line style="fill:none;stroke:#000000;stroke-width:0.25;stroke-miterlimit:10;" x1="136" x2="136" y1="160" y2="-32"/>
              <line style="fill:none;stroke:#000000;stroke-width:0.25;stroke-miterlimit:10;" x1="137" x2="137" y1="166.05" y2="-25.95"/>
              <line style="fill:none;stroke:#000000;stroke-width:0.25;stroke-miterlimit:10;" x1="144" x2="144" y1="160" y2="-32"/>
              <line style="fill:none;stroke:#000000;stroke-width:0.25;stroke-miterlimit:10;" x1="148" x2="148" y1="160" y2="-32"/>
              <line style="fill:none;stroke:#000000;stroke-width:0.25;stroke-miterlimit:10;" x1="152" x2="152" y1="160" y2="-32"/>
              <line style="fill:none;stroke:#000000;stroke-width:0.25;stroke-miterlimit:10;" x1="156" x2="156" y1="160" y2="-32"/>
            </g>
            <g>
              <line style="fill:none;stroke:#000000;stroke-width:0.25;stroke-miterlimit:10;" x1="-32" x2="160" y1="-28" y2="-28"/>
              <line style="fill:none;stroke:#000000;stroke-width:0.25;stroke-miterlimit:10;" x1="-32" x2="160" y1="-24" y2="-24"/>
              <line style="fill:none;stroke:#000000;stroke-width:0.25;stroke-miterlimit:10;" x1="-32" x2="160" y1="-20" y2="-20"/>
              <line style="fill:none;stroke:#000000;stroke-width:0.25;stroke-miterlimit:10;" x1="-32" x2="160" y1="-16" y2="-16"/>
              <line style="fill:none;stroke:#000000;stroke-width:0.25;stroke-miterlimit:10;" x1="-32" x2="160" y1="-12" y2="-12"/>
              <line style="fill:none;stroke:#000000;stroke-width:0.25;stroke-miterlimit:10;" x1="-32" x2="160" y1="-8" y2="-8"/>
              <line style="fill:none;stroke:#000000;stroke-width:0.25;stroke-miterlimit:10;" x1="-32" x2="160" y1="-4" y2="-4"/>
              <line style="fill:none;stroke:#000000;stroke-width:0.25;stroke-miterlimit:10;" x1="-32" x2="160" y1="0" y2="0"/>
              <line style="fill:none;stroke:#000000;stroke-width:0.25;stroke-miterlimit:10;" x1="-32" x2="160" y1="4" y2="4"/>
              <line style="fill:none;stroke:#000000;stroke-width:0.25;stroke-miterlimit:10;" x1="-32" x2="160" y1="8" y2="8"/>
              <line style="fill:none;stroke:#000000;stroke-width:0.25;stroke-miterlimit:10;" x1="-32" x2="160" y1="12" y2="12"/>
              <line style="fill:none;stroke:#000000;stroke-width:0.25;stroke-miterlimit:10;" x1="-32" x2="160" y1="16" y2="16"/>
              <line style="fill:none;stroke:#000000;stroke-width:0.25;stroke-miterlimit:10;" x1="-32" x2="160" y1="20" y2="20"/>
              <line style="fill:none;stroke:#000000;stroke-width:0.25;stroke-miterlimit:10;" x1="-32" x2="160" y1="24" y2="24"/>
              <line style="fill:none;stroke:#000000;stroke-width:0.25;stroke-miterlimit:10;" x1="-32" x2="160" y1="28" y2="28"/>
              <line style="fill:none;stroke:#000000;stroke-width:0.25;stroke-miterlimit:10;" x1="-32" x2="160" y1="32" y2="32"/>
              <line style="fill:none;stroke:#000000;stroke-width:0.25;stroke-miterlimit:10;" x1="-32" x2="160" y1="36" y2="36"/>
              <line style="fill:none;stroke:#000000;stroke-width:0.25;stroke-miterlimit:10;" x1="-32" x2="160" y1="40" y2="40"/>
              <line style="fill:none;stroke:#000000;stroke-width:0.25;stroke-miterlimit:10;" x1="-32" x2="160" y1="44" y2="44"/>
              <line style="fill:none;stroke:#000000;stroke-width:0.25;stroke-miterlimit:10;" x1="-32" x2="160" y1="48" y2="48"/>
              <line style="fill:none;stroke:#000000;stroke-width:0.25;stroke-miterlimit:10;" x1="-32" x2="160" y1="52" y2="52"/>
              <line style="fill:none;stroke:#000000;stroke-width:0.25;stroke-miterlimit:10;" x1="-32" x2="160" y1="56" y2="56"/>
              <line style="fill:none;stroke:#000000;stroke-width:0.25;stroke-miterlimit:10;" x1="-32" x2="160" y1="60" y2="60"/>
              <line style="fill:none;stroke:#000000;stroke-width:0.25;stroke-miterlimit:10;" x1="-32" x2="160" y1="64" y2="64"/>
              <line style="fill:none;stroke:#000000;stroke-width:0.25;stroke-miterlimit:10;" x1="-32" x2="160" y1="68" y2="68"/>
              <line style="fill:none;stroke:#000000;stroke-width:0.25;stroke-miterlimit:10;" x1="-32" x2="160" y1="72" y2="72"/>
              <line style="fill:none;stroke:#000000;stroke-width:0.25;stroke-miterlimit:10;" x1="-32" x2="160" y1="76" y2="76"/>
              <line style="fill:none;stroke:#000000;stroke-width:0.25;stroke-miterlimit:10;" x1="-32" x2="160" y1="80" y2="80"/>
              <line style="fill:none;stroke:#000000;stroke-width:0.25;stroke-miterlimit:10;" x1="-32" x2="160" y1="84" y2="84"/>
              <line style="fill:none;stroke:#000000;stroke-width:0.25;stroke-miterlimit:10;" x1="-32" x2="160" y1="88" y2="88"/>
              <line style="fill:none;stroke:#000000;stroke-width:0.25;stroke-miterlimit:10;" x1="-32" x2="160" y1="92" y2="92"/>
              <line style="fill:none;stroke:#000000;stroke-width:0.25;stroke-miterlimit:10;" x1="-32" x2="160" y1="96" y2="96"/>
              <line style="fill:none;stroke:#000000;stroke-width:0.25;stroke-miterlimit:10;" x1="-32" x2="160" y1="100" y2="100"/>
              <line style="fill:none;stroke:#000000;stroke-width:0.25;stroke-miterlimit:10;" x1="-32" x2="160" y1="104" y2="104"/>
              <line style="fill:none;stroke:#000000;stroke-width:0.25;stroke-miterlimit:10;" x1="-32" x2="160" y1="108" y2="108"/>
              <line style="fill:none;stroke:#000000;stroke-width:0.25;stroke-miterlimit:10;" x1="-32" x2="160" y1="112" y2="112"/>
              <line style="fill:none;stroke:#000000;stroke-width:0.25;stroke-miterlimit:10;" x1="-32" x2="160" y1="116" y2="116"/>
              <line style="fill:none;stroke:#000000;stroke-width:0.25;stroke-miterlimit:10;" x1="-32" x2="160" y1="120" y2="120"/>
              <line style="fill:none;stroke:#000000;stroke-width:0.25;stroke-miterlimit:10;" x1="-32" x2="160" y1="124" y2="124"/>
              <line style="fill:none;stroke:#000000;stroke-width:0.25;stroke-miterlimit:10;" x1="-32" x2="160" y1="128" y2="128"/>
              <line style="fill:none;stroke:#000000;stroke-width:0.25;stroke-miterlimit:10;" x1="-32" x2="160" y1="132" y2="132"/>
              <line style="fill:none;stroke:#000000;stroke-width:0.25;stroke-miterlimit:10;" x1="-32" x2="160" y1="136" y2="136"/>
              <line style="fill:none;stroke:#000000;stroke-width:0.25;stroke-miterlimit:10;" x1="-32" x2="160" y1="140" y2="140"/>
              <line style="fill:none;stroke:#000000;stroke-width:0.25;stroke-miterlimit:10;" x1="-32" x2="160" y1="144" y2="144"/>
              <line style="fill:none;stroke:#000000;stroke-width:0.25;stroke-miterlimit:10;" x1="-32" x2="160" y1="148" y2="148"/>
              <line style="fill:none;stroke:#000000;stroke-width:0.25;stroke-miterlimit:10;" x1="-32" x2="160" y1="152" y2="152"/>
              <line style="fill:none;stroke:#000000;stroke-width:0.25;stroke-miterlimit:10;" x1="-32" x2="160" y1="156" y2="156"/>
            </g>
            <path d="M159.75-31.75v191.5h-191.5v-191.5H159.75 M160-32H-32v192h192V-32L160-32z"/>
          </g>
        </g>
        <g>
          <rect height="128" style="opacity:0.3;fill:#F44336;" width="4" x="0" y="0"/>
          <rect height="128" style="opacity:0.3;fill:#F44336;" width="4" x="124" y="0"/>
          <rect height="120" style="opacity:0.3;fill:#F44336;" transform="matrix(-1.836970e-16 1 -1 -1.836970e-16 66 -62)" width="4" x="62" y="-58"/>
          <rect height="120" style="opacity:0.3;fill:#F44336;" transform="matrix(-1.836970e-16 1 -1 -1.836970e-16 190 62)" width="4" x="62" y="66"/>
        </g>
      </g>
    </g>
  </g>
</svg>
